icons/AdobePhotoshopColor.svg

<svg width="16" height="16" viewBox="0 0 16 16" fill="none" xmlns="http://www.w3.org/2000/svg">
<g clip-path="url(#clip0_2180_4608)">
<path d="M2.83333 0.200012H13.1667C14.7333 0.200012 16 1.46668 16 3.03335V12.9667C16 14.5333 14.7333 15.8 13.1667 15.8H2.83333C1.26667 15.8 0 14.5333 0 12.9667V3.03335C0 1.46668 1.26667 0.200012 2.83333 0.200012Z" fill="#001E36"/>
<path d="M3.6001 11.14V4.28002C3.6001 4.23335 3.6201 4.20669 3.66676 4.20669C3.7801 4.20669 3.88676 4.20669 4.0401 4.20002C4.2001 4.19335 4.36676 4.19335 4.54676 4.18669C4.72676 4.18002 4.9201 4.18002 5.12676 4.17335C5.33343 4.16669 5.53343 4.16669 5.73343 4.16669C6.2801 4.16669 6.73343 4.23335 7.10676 4.37335C7.4401 4.48669 7.74676 4.67335 8.0001 4.92002C8.21343 5.13335 8.3801 5.39335 8.48676 5.68002C8.58676 5.96002 8.6401 6.24669 8.6401 6.54669C8.6401 7.12002 8.50676 7.59335 8.2401 7.96669C7.97343 8.34002 7.6001 8.62002 7.16676 8.78002C6.71343 8.94669 6.21343 9.00669 5.66676 9.00669C5.50676 9.00669 5.4001 9.00669 5.33343 9.00002C5.26676 8.99335 5.17343 8.99335 5.04676 8.99335V11.1334C5.05343 11.18 5.0201 11.22 4.97343 11.2267C4.96676 11.2267 4.9601 11.2267 4.94676 11.2267H3.6801C3.62676 11.2267 3.6001 11.2 3.6001 11.14ZM5.05343 5.49335V7.73335C5.14676 7.74002 5.23343 7.74669 5.31343 7.74669H5.66676C5.92676 7.74669 6.18676 7.70669 6.43343 7.62669C6.64676 7.56669 6.83343 7.44002 6.9801 7.27335C7.1201 7.10669 7.18676 6.88002 7.18676 6.58669C7.19343 6.38002 7.1401 6.17335 7.03343 5.99335C6.9201 5.82002 6.7601 5.68669 6.56676 5.61335C6.3201 5.51335 6.05343 5.47335 5.7801 5.48002C5.60676 5.48002 5.45343 5.48002 5.32676 5.48669C5.19343 5.48002 5.1001 5.48669 5.05343 5.49335Z" fill="#31A8FF"/>
<path d="M12.8001 7.32667C12.6001 7.22001 12.3867 7.14667 12.1601 7.10001C11.9134 7.04667 11.6667 7.01334 11.4134 7.01334C11.2801 7.00667 11.1401 7.02667 11.0134 7.06001C10.9267 7.08001 10.8534 7.12667 10.8067 7.19334C10.7734 7.24667 10.7534 7.31334 10.7534 7.37334C10.7534 7.43334 10.7801 7.49334 10.8201 7.54667C10.8801 7.62001 10.9601 7.68001 11.0467 7.72667C11.2001 7.80667 11.3601 7.88001 11.5201 7.94667C11.8801 8.06667 12.2267 8.23334 12.5467 8.43334C12.7667 8.57334 12.9467 8.76001 13.0734 8.98667C13.1801 9.20001 13.2334 9.43334 13.2267 9.67334C13.2334 9.98667 13.1401 10.3 12.9667 10.56C12.7801 10.8267 12.5201 11.0333 12.2201 11.1533C11.8934 11.2933 11.4934 11.3667 11.0134 11.3667C10.7067 11.3667 10.4067 11.34 10.1067 11.28C9.87339 11.24 9.64005 11.1667 9.42672 11.0667C9.38005 11.04 9.34672 10.9933 9.35339 10.94V9.78001C9.35339 9.76001 9.36005 9.73334 9.38005 9.72001C9.40005 9.70667 9.42006 9.71334 9.44006 9.72667C9.70006 9.88001 9.97339 9.98667 10.2667 10.0533C10.5201 10.12 10.7867 10.1533 11.0534 10.1533C11.3067 10.1533 11.4867 10.12 11.6067 10.06C11.7134 10.0133 11.7867 9.90001 11.7867 9.78001C11.7867 9.68667 11.7334 9.60001 11.6267 9.51334C11.5201 9.42667 11.3001 9.32667 10.9734 9.20001C10.6334 9.08001 10.3201 8.92001 10.0267 8.72001C9.82005 8.57334 9.64672 8.38001 9.52006 8.15334C9.41339 7.94001 9.36005 7.70667 9.36672 7.47334C9.36672 7.18667 9.44672 6.91334 9.59339 6.66667C9.76005 6.40001 10.0067 6.18667 10.2934 6.05334C10.6067 5.89334 11.0001 5.82001 11.4734 5.82001C11.7467 5.82001 12.0267 5.84001 12.3001 5.88001C12.5001 5.90667 12.6934 5.96001 12.8734 6.03334C12.9001 6.04001 12.9267 6.06667 12.9401 6.09334C12.9467 6.12001 12.9534 6.14667 12.9534 6.17334V7.26001C12.9534 7.28667 12.9401 7.31334 12.9201 7.32667C12.8601 7.34001 12.8267 7.34001 12.8001 7.32667Z" fill="#31A8FF"/>
</g>
<defs>
<clipPath id="clip0_2180_4608">
<rect width="16" height="16" fill="white"/>
</clipPath>
</defs>
</svg>

<svg width="16" height="16" fill="none" xmlns="http://www.w3.org/2000/svg"><g clip-path="url(#a)"><path d="M2.833.2h10.334A2.831 2.831 0 0 1 16 3.033v9.934a2.831 2.831 0 0 1-2.833 2.833H2.833A2.831 2.831 0 0 1 0 12.967V3.033A2.831 2.831 0 0 1 2.833.2z" fill="#001E36"/><path d="M3.6 11.14V4.28c0-.047.02-.073.067-.073.113 0 .22 0 .373-.007.16-.007.327-.007.507-.013.18-.007.373-.007.58-.014.206-.006.406-.006.606-.006.547 0 1 .066 1.374.206.333.114.64.3.893.547.213.213.38.473.487.76.1.28.153.567.153.867 0 .573-.133 1.046-.4 1.42-.267.373-.64.653-1.073.813-.454.167-.954.227-1.5.227-.16 0-.267 0-.334-.007-.066-.007-.16-.007-.286-.007v2.14c.006.047-.027.087-.074.094H3.68c-.053 0-.08-.027-.08-.087zm1.453-5.647v2.24c.094.007.18.014.26.014h.354c.26 0 .52-.04.766-.12.214-.06.4-.187.547-.354.14-.166.207-.393.207-.686a1.097 1.097 0 0 0-.154-.594.967.967 0 0 0-.466-.38c-.247-.1-.514-.14-.787-.133-.173 0-.327 0-.453.007-.134-.007-.227 0-.274.006zM12.8 7.327a2.36 2.36 0 0 0-.64-.227 3.515 3.515 0 0 0-.747-.087 1.342 1.342 0 0 0-.4.047.342.342 0 0 0-.206.133.354.354 0 0 0-.054.18c0 .06.027.12.067.174.06.073.14.133.227.18.153.08.313.153.473.22.36.12.707.286 1.027.486.22.14.4.327.526.554.107.213.16.446.154.686a1.55 1.55 0 0 1-.26.887 1.67 1.67 0 0 1-.747.593c-.327.14-.727.214-1.207.214-.306 0-.606-.027-.906-.087a2.69 2.69 0 0 1-.68-.213c-.047-.027-.08-.074-.074-.127V9.78c0-.02.007-.047.027-.06.02-.013.04-.007.06.007.26.153.533.26.827.326.253.067.52.1.786.1.254 0 .434-.033.554-.093a.31.31 0 0 0 .18-.28c0-.093-.054-.18-.16-.267-.107-.086-.327-.186-.654-.313a4.08 4.08 0 0 1-.946-.48 1.726 1.726 0 0 1-.507-.567 1.43 1.43 0 0 1-.153-.68c0-.286.08-.56.226-.806.167-.267.414-.48.7-.614.314-.16.707-.233 1.18-.233.274 0 .554.02.827.06.2.027.393.08.573.153.027.007.054.034.067.06.007.027.013.054.013.08V7.26a.082.082 0 0 1-.033.067c-.06.013-.093.013-.12 0z" fill="#31A8FF"/></g><defs><clipPath id="a"><path fill="#fff" d="M0 0h16v16H0z"/></clipPath></defs></svg>
